!!!OTL: Wer niemals einen Rausch gehabt.
!!!OTL-incipit:WER NIEMALS EINEN RAUSCH GEHABT
!!!COM: M. Mueller
!!!ARE: Europa, Mitteleuropa, Deutschland
!!!SCT: F0141
!!!TXL: @@DE
!!!YEM: Copyright 1995, estate of Helmut Schaffrath.
**kern	**text
*ICvox	*
*clefG2	*
*M2/4	*
*k[b-]	*
*F:	*
{16fL	Wer
16aJ	.
=1	=1
(16ccL	nie-
16bnJ)	.
(16ccL	-mals
16ddJ)	.
(16ccL	ei-
16bnJ)	.
(16ccL	-nen
16ddJ)	.
=2	=2
8cc	Rauſch
8a	gehabt,
8f}	.
{8a	der
=3	=3
8g	iſt
8b-/	kein
8e	braver
8g	.
=4	=4
8f	Mann,
8a	juch-
8cc}	-he!
{8a	der
=5	=5
8g	iſt
8b-/	kein
8e	bra-
8g	-ver
=6	=6
4.f}	Mann;
{16fL	Wer
16aJ	.
=7	=7
(16ccL	ſei-
16bnJ)	.
(16ccL	-nen
16ddJ)	.
(16ccL	Durſt
16bnJ)	.
(16ccL	mit
16ddJ)	.
=8	=8
8cc	Ach-
8a	-teln
8f}	labt,
{8a	fang'
=9	=9
8g	lie-
8b-/	-ber
8e	gar
8g	nicht
=10	=10
8f	an,
8a	juch-
8cc}	-he!
{8a	fang'
=11	=11
8g	lie-
8b-	-ber
8e	gar
8g	nicht
=12	=12
!LO:N:vis=4	!
4.f}	an.
{8a	Da
=13	=13
8g	dreht
8g	ſich
8a	Al-
8a	-les
=14	=14
8b-/	un
8b-/	und
8a}	um
{8a	in
=15	=15
8g	un-
8g	-ſerm
8a	Ca-
8a	-pi-
=16	=16
8b-/	-to-
8b-/	-li-
8a}	-um,
{8a	in
=17	=17
8g	un-
8g	-ſerm
8a	Ca-
8a	-pi-
=18	=18
4b-/	-to-
4r	.
=19	=19
4a	-li-
4r	.
=20	=20
4.g;}	-um.
{16fL	Wer
16aJ	.
=21	=21
(16ccL	nie-
16bnJ)	.
(16ccL	-mals
16ddJ)	.
(16ccL	ei-
16bnJ)	.
(16ccL	-nem
16ddJ)	.
=22	=22
8cc	Rauſch
8a	gehabt,
8f}	.
{8a	der
=23	=23
8g	iſt
8b-/	kein
8e	braver
8g	.
=24	=24
8f	Mann,
8a	juch-
8cc/}	-he!
{8a	der
=25	=25
8g	iſt
8b-/	kein
8e	bra-
8g	-ver
=26	=26
!LO:N:vis=4	!
4.f}	Mann;
{16fL	Wer
16aJ	.
=27	=27
(16ccL	ſei-
16bnJ)	.
(16ccL	-nen
16ddJ)	.
(16ccL	Durſt
16bnJ)	.
(16ccL	mit
16ddJ)	.
=28	=28
8cc	Ach-
8a	-teln
8f}	labt,
{8a	fang'
=29	=29
8g	lie-
8b-/	-ber
8e	gar
8g	nicht
=30	=30
8f	an,
8a	juch-
8cc/}	-he!
{8a	fang'
=31	=31
8g	lie-
8b-/	-ber
8e	gar
8g	nicht
=32	=32
!LO:N:vis=4	!
4.f}	an.
==	==
!!!AGN: Trink - Lied
!!!ONB: ESAC (Essen Associative Code) Database: FINK
!!!AMT: simple duple
!!!AIN: vox
!!!EED: Helmut Schaffrath
!!!EEV: 1.0
!!!GTL: Volkslieder
!!Text: J. Perinet
!!!source: Musikalischer Hausschatz der Deutschen. Eine Sammlung von über 1000 Liedern und Gesängen mit Singstimmen und Klavierbegleitung. Leipzig, Litterarisches Verlags-Haus.
!!!page: 82
!!!URL-scan: https://www.digitale-sammlungen.de/en/view/bsb11144622?page=90,91
!!!ENC: Anna Maria Matuszewska
!!!EEV: 2024/26/07
*-	*-
